Suru++-Ubuntu/apps/scalable/desktop-enviroment-gnome.svg

<svg width="256" height="256" style="clip-rule:evenodd;fill-rule:evenodd;image-rendering:optimizeQuality;shape-rendering:geometricPrecision;text-rendering:geometricPrecision" version="1.1" viewBox="0 0 256 256" xmlns="http://www.w3.org/2000/svg" xmlns:xlink="http://www.w3.org/1999/xlink">
 <defs>
  <style type="text/css"><![CDATA[
    .fil5 {fill:none}
    .fil1 {fill:#196FBA}
    .fil0 {fill:#25B2EE}
    .fil4 {fill:#793C7C}
    .fil3 {fill:#8C508C}
    .fil2 {fill:white}
   ]]></style>
  <filter id="filter939" x="-.02" y="-.03" width="1.046" height="1.05" style="color-interpolation-filters:sRGB">
   <feGaussianBlur stdDeviation="2.32"/>
  </filter>
  <filter id="filter4569" x="-.01" y="-.01" width="1.023" height="1.025" style="color-interpolation-filters:sRGB">
   <feGaussianBlur stdDeviation="1.16"/>
  </filter>
  <linearGradient id="linearGradient1108" x1="296" x2="296" y1="-212" y2="236" gradientUnits="userSpaceOnUse">
   <stop style="stop-color:#ffffff" offset="0"/>
   <stop style="stop-color:#ffffff;stop-opacity:.09803922" offset=".125"/>
   <stop style="stop-color:#000000;stop-opacity:.09803922" offset=".925"/>
   <stop style="stop-color:#000000;stop-opacity:.49803922" offset="1"/>
  </linearGradient>
  <clipPath id="clipPath1082-3-361">
   <path d="M 361.9375,-212 C 507.2348,-212 528,-191.28677 528,-46.125 V 70.125 C 528,215.28618 507.2348,236 361.9375,236 H 214.0625 C 68.7652,236 48,215.28618 48,70.125 V -46.125 C 48,-191.28677 68.7652,-212 214.0625,-212 Z" style="fill:#8c59d9"/>
  </clipPath>
  <filter id="filter1479" x="-.06" y="-.04" width="1.11" height="1.085" style="color-interpolation-filters:sRGB">
   <feGaussianBlur stdDeviation="2.831"/>
  </filter>
 </defs>
 <path transform="matrix(1.019368,0,0,1.019368,-7.2181772e-8,8.3098661)" d="m162.53675 5.5680001c72.64865 0 83.03125 10.356615 83.03125 82.937505v58.125005c0 72.58059-10.3826 82.9375-83.03125 82.9375h-73.937496c-72.648654 0-83.031254-10.35691-83.031254-82.9375v-58.125005c0-72.58089 10.3826-82.937505 83.031254-82.937505z" style="filter:url(#filter939);opacity:.2"/>
 <path d="m165.68477 11.946967c74.05571 0 84.6394 10.557203 84.6394 84.543835v59.250778c0 73.98633-10.58369 84.54383-84.6394 84.54383h-75.369521c-74.055717 0-84.639408-10.5575-84.639408-84.54383v-59.250778c0-73.986632 10.583691-84.543835 84.639408-84.543835z" style="fill:none;opacity:.1;stroke-linecap:round;stroke-linejoin:round;stroke-width:4.0774717;stroke:#000000"/>
 <path transform="matrix(1.019368,0,0,1.019368,-7.2181772e-8,8.3098661)" d="m162.53675 3.5680001c72.64865 0 83.03125 10.356615 83.03125 82.937505v58.125005c0 72.58059-10.3826 82.9375-83.03125 82.9375h-73.937496c-72.648654 0-83.031254-10.35691-83.031254-82.9375v-58.125005c0-72.58089 10.3826-82.937505 83.031254-82.937505z" style="filter:url(#filter4569);opacity:.1"/>
 <path d="m165.68476 11.946967c74.05571 0 84.6394 10.557203 84.6394 84.543835v59.250778c0 73.98633-10.58369 84.54383-84.6394 84.54383h-75.369524c-74.055712 0-84.639404-10.5575-84.639404-84.54383v-59.250778c0-73.986632 10.583692-84.543835 84.639404-84.543835z" style="fill:#a3dbf0"/>
 <path d="m90.315238 240.28541c-74.055712 0-84.639403-10.95275-84.639403-87.71148v-30.73535h244.64832v30.73535c0 76.75873-10.58369 87.71148-84.6394 87.71148z" style="fill:#ffffff;opacity:.1"/>
 <path d="m127.01285 11.946967v228.33844h37.98888c74.65333 0 85.32243-10.5575 85.32243-84.54383v-59.250778c0-73.986632-10.6691-84.543835-85.32243-84.543835z" style="fill:#ffffff;opacity:.1"/>
 <path transform="matrix(.50968403 0 0 .50968403 -18.788999 120)" d="M 361.9375,-212 C 507.2348,-212 528,-191.28677 528,-46.125 V 70.125 C 528,215.28618 507.2348,236 361.9375,236 H 214.0625 C 68.7652,236 48,215.28618 48,70.125 V -46.125 C 48,-191.28677 68.7652,-212 214.0625,-212 Z" clip-path="url(#clipPath1082-3-361)" style="fill:none;opacity:.4;stroke-linecap:round;stroke-linejoin:round;stroke-width:8;stroke:url(#linearGradient1108)"/>
 <path class="ColorScheme-Text" d="m176.64528 46.116189c-31.25257 0-37.11532 47.4776-19.53132 47.4776 17.576 0 50.78732-47.4776 19.53132-47.4776zm-48.12503 7.299086c-0.49257-0.0023-1.03086-0.0026-1.5848 0.114285-17.70972 2.236572-11.48206 32.209029-2.0536 32.767886 9.12914 0.548572 19.10811-32.804571 3.61611-32.857143zm-30.714297 11.071428c-1.08343-0.114285-2.2808 0.144-3.61611 0.692572-14.23543 5.844571-2.16549 29.969943 5.80366 28.348229 7.233257-1.469715 8.273377-28.360229-2.18755-29.040229zm-23.23657 19.732115c-1.23726 0-2.56777 0.385143-3.99554 1.450971-11.3944 8.504 3.83108 29.055661 10.53566 25.870521 5.86457-2.78972 2.1232-27.008349-6.54012-27.321492zm67.299097 19.598282c-24.68915-0.42285-57.256007 12.10755-62.812577 37.27669-6.01235 27.23086 24.764217 65.0224 56.875087 65.0224 15.79657 0 34.0216-14.44091 37.43303-32.7232 2.60309-13.94057-30.65749-8.3512-29.46434 0.87086 1.43383 11.05714-7.99966 16.52411-17.2544 9.39726-29.459437-22.69143 48.77714-34.02229 43.616-65.02229-1.60617-9.65029-13.57909-14.56777-28.3928-14.82149z" style="fill:#808080;filter:url(#filter1479);opacity:.3"/>
 <path class="ColorScheme-Text" d="m176.64528 46.116189c-31.25257 0-37.11532 47.4776-19.53132 47.4776 17.576 0 50.78732-47.4776 19.53132-47.4776zm-48.12503 7.299086c-0.49257-0.0023-1.03086-0.0026-1.5848 0.114285-17.70972 2.236572-11.48206 32.209029-2.0536 32.767886 9.12914 0.548572 19.10811-32.804571 3.61611-32.857143zm-30.714297 11.071428c-1.08343-0.114285-2.2808 0.144-3.61611 0.692572-14.23543 5.844571-2.16549 29.969943 5.80366 28.348229 7.233257-1.469715 8.273377-28.360229-2.18755-29.040229zm-23.23657 19.732115c-1.23726 0-2.56777 0.385143-3.99554 1.450971-11.3944 8.504 3.83108 29.055661 10.53566 25.870521 5.86457-2.78972 2.1232-27.008349-6.54012-27.321492zm67.299097 19.598282c-24.68915-0.42285-57.256007 12.10755-62.812577 37.27669-6.01235 27.23086 24.764217 65.0224 56.875087 65.0224 15.79657 0 34.0216-14.44091 37.43303-32.7232 2.60309-13.94057-30.65749-8.3512-29.46434 0.87086 1.43383 11.05714-7.99966 16.52411-17.2544 9.39726-29.459437-22.69143 48.77714-34.02229 43.616-65.02229-1.60617-9.65029-13.57909-14.56777-28.3928-14.82149z" style="fill:#808080"/>
</svg>

<svg xmlns="http://www.w3.org/2000/svg" xmlns:xlink="http://www.w3.org/1999/xlink" style="clip-rule:evenodd;fill-rule:evenodd;image-rendering:optimizeQuality;shape-rendering:geometricPrecision;text-rendering:geometricPrecision" width="256" height="256" version="1.1" viewBox="0 0 256 256" xml:space="preserve">
 <defs>
  <style id="style2" type="text/css">
   <![CDATA[
    .fil5 {fill:none}
    .fil1 {fill:#196FBA}
    .fil0 {fill:#25B2EE}
    .fil4 {fill:#793C7C}
    .fil3 {fill:#8C508C}
    .fil2 {fill:white}
   ]]>
  </style>
  <filter style="color-interpolation-filters:sRGB" id="filter939" width="1.046" height="1.05" x="-.02" y="-.03">
   <feGaussianBlur id="feGaussianBlur941" stdDeviation="2.32"/>
  </filter>
  <filter style="color-interpolation-filters:sRGB" id="filter4569" width="1.023" height="1.025" x="-.01" y="-.01">
   <feGaussianBlur id="feGaussianBlur4571" stdDeviation="1.16"/>
  </filter>
  <linearGradient id="linearGradient1108" x1="296" x2="296" y1="-212" y2="236" gradientUnits="userSpaceOnUse" xlink:href="#linearGradient1013"/>
  <linearGradient id="linearGradient1013">
   <stop id="stop1005" offset="0" style="stop-color:#ffffff"/>
   <stop style="stop-color:#ffffff;stop-opacity:0.09803922" id="stop1007" offset=".125"/>
   <stop style="stop-color:#000000;stop-opacity:0.09803922" id="stop1009" offset=".925"/>
   <stop id="stop1011" offset="1" style="stop-color:#000000;stop-opacity:0.49803922"/>
  </linearGradient>
  <clipPath id="clipPath1082-3-361" clipPathUnits="userSpaceOnUse">
   <path d="M 361.9375,-212 C 507.2348,-212 528,-191.28677 528,-46.125 V 70.125 C 528,215.28618 507.2348,236 361.9375,236 H 214.0625 C 68.7652,236 48,215.28618 48,70.125 V -46.125 C 48,-191.28677 68.7652,-212 214.0625,-212 Z" style="fill:#8c59d9"/>
  </clipPath>
  <linearGradient id="linearGradient4958">
   <stop style="stop-color:#8d91db" id="stop4960" offset="0"/>
   <stop style="stop-color:#1f225f" id="stop4962" offset="1"/>
  </linearGradient>
  <radialGradient id="radialGradient3033" cx="182.984" cy="395.049" r="148.953" fx="182.984" fy="395.049" gradientTransform="matrix(1.165761,-1.2668566,3.8886482,4.2258738,-1653.0964,-1252.7344)" gradientUnits="userSpaceOnUse" xlink:href="#linearGradient3755"/>
  <linearGradient id="linearGradient3755">
   <stop style="stop-color:#008cbe" id="stop3757" offset="0"/>
   <stop style="stop-color:#b2ffff" id="stop3759" offset="1"/>
  </linearGradient>
  <filter style="color-interpolation-filters:sRGB" id="filter1479" width="1.11" height="1.085" x="-.06" y="-.04">
   <feGaussianBlur id="feGaussianBlur1481" stdDeviation="2.831"/>
  </filter>
 </defs>
 <path style="opacity:0.2;filter:url(#filter939)" d="m 162.53675,5.5680001 c 72.64865,0 83.03125,10.3566149 83.03125,82.9375049 v 58.125005 c 0,72.58059 -10.3826,82.9375 -83.03125,82.9375 H 88.599254 C 15.9506,229.56801 5.568,219.2111 5.568,146.63051 V 88.505505 c 0,-72.58089 10.3826,-82.9375049 83.031254,-82.9375049 z" transform="matrix(1.019368,0,0,1.019368,-7.2181772e-8,8.3098661)"/>
 <path d="m 165.68477,11.946967 c 74.05571,0 84.6394,10.557203 84.6394,84.543835 v 59.250778 c 0,73.98633 -10.58369,84.54383 -84.6394,84.54383 H 90.315249 c -74.055717,0 -84.639408,-10.5575 -84.639408,-84.54383 V 96.490802 c 0,-73.986632 10.583691,-84.543835 84.639408,-84.543835 z" style="opacity:0.1;fill:none;stroke:#000000;stroke-width:4.07747173;stroke-linecap:round;stroke-linejoin:round"/>
 <path d="m 162.53675,3.5680001 c 72.64865,0 83.03125,10.3566149 83.03125,82.9375049 v 58.125005 c 0,72.58059 -10.3826,82.9375 -83.03125,82.9375 H 88.599254 C 15.9506,227.56801 5.568,217.2111 5.568,144.63051 V 86.505505 c 0,-72.58089 10.3826,-82.9375049 83.031254,-82.9375049 z" transform="matrix(1.019368,0,0,1.019368,-7.2181772e-8,8.3098661)" style="opacity:0.1;filter:url(#filter4569)"/>
 <path style="fill:#a3dbf0" d="m 165.68476,11.946967 c 74.05571,0 84.6394,10.557203 84.6394,84.543835 v 59.250778 c 0,73.98633 -10.58369,84.54383 -84.6394,84.54383 H 90.315236 c -74.055712,0 -84.6394035,-10.5575 -84.6394035,-84.54383 V 96.490802 c 0,-73.986632 10.5836915,-84.543835 84.6394035,-84.543835 z"/>
 <path style="opacity:0.1;fill:#ffffff" d="m 90.315238,240.28541 c -74.055712,0 -84.639403,-10.95275 -84.639403,-87.71148 V 121.83858 H 250.32416 v 30.73535 c 0,76.75873 -10.58369,87.71148 -84.6394,87.71148 z"/>
 <path style="opacity:0.1;fill:#ffffff" d="M 127.01285,11.946967 V 240.28541 h 37.98888 c 74.65333,0 85.32243,-10.5575 85.32243,-84.54383 V 96.490802 c 0,-73.986632 -10.6691,-84.543835 -85.32243,-84.543835 z"/>
 <path d="M 361.9375,-212 C 507.2348,-212 528,-191.28677 528,-46.125 V 70.125 C 528,215.28618 507.2348,236 361.9375,236 H 214.0625 C 68.7652,236 48,215.28618 48,70.125 V -46.125 C 48,-191.28677 68.7652,-212 214.0625,-212 Z" clip-path="url(#clipPath1082-3-361)" transform="matrix(0.50968403,0,0,0.50968403,-18.788999,120)" style="opacity:0.4;fill:none;stroke:url(#linearGradient1108);stroke-width:8;stroke-linecap:round;stroke-linejoin:round"/>
 <path class="ColorScheme-Text" d="m 176.64528,46.116189 c -31.25257,0 -37.11532,47.4776 -19.53132,47.4776 17.576,0 50.78732,-47.4776 19.53132,-47.4776 z m -48.12503,7.299086 c -0.49257,-0.0023 -1.03086,-0.0026 -1.5848,0.114285 -17.70972,2.236572 -11.48206,32.209029 -2.0536,32.767886 9.12914,0.548572 19.10811,-32.804571 3.61611,-32.857143 z M 97.805953,64.486703 c -1.08343,-0.114285 -2.2808,0.144 -3.61611,0.692572 -14.23543,5.844571 -2.16549,29.969943 5.80366,28.348229 7.233257,-1.469715 8.273377,-28.360229 -2.18755,-29.040229 z m -23.23657,19.732115 c -1.23726,0 -2.56777,0.385143 -3.99554,1.450971 -11.3944,8.504 3.83108,29.055661 10.53566,25.870521 5.86457,-2.78972 2.1232,-27.008349 -6.54012,-27.321492 z M 141.86848,103.8171 c -24.68915,-0.42285 -57.256007,12.10755 -62.812577,37.27669 -6.01235,27.23086 24.764217,65.0224 56.875087,65.0224 15.79657,0 34.0216,-14.44091 37.43303,-32.7232 2.60309,-13.94057 -30.65749,-8.3512 -29.46434,0.87086 1.43383,11.05714 -7.99966,16.52411 -17.2544,9.39726 -29.459437,-22.69143 48.77714,-34.02229 43.616,-65.02229 -1.60617,-9.65029 -13.57909,-14.56777 -28.3928,-14.82149 z" style="opacity:0.3;fill:#808080;filter:url(#filter1479)"/>
 <path style="fill:#808080" class="ColorScheme-Text" d="m 176.64528,46.116189 c -31.25257,0 -37.11532,47.4776 -19.53132,47.4776 17.576,0 50.78732,-47.4776 19.53132,-47.4776 z m -48.12503,7.299086 c -0.49257,-0.0023 -1.03086,-0.0026 -1.5848,0.114285 -17.70972,2.236572 -11.48206,32.209029 -2.0536,32.767886 9.12914,0.548572 19.10811,-32.804571 3.61611,-32.857143 z M 97.805953,64.486703 c -1.08343,-0.114285 -2.2808,0.144 -3.61611,0.692572 -14.23543,5.844571 -2.16549,29.969943 5.80366,28.348229 7.233257,-1.469715 8.273377,-28.360229 -2.18755,-29.040229 z m -23.23657,19.732115 c -1.23726,0 -2.56777,0.385143 -3.99554,1.450971 -11.3944,8.504 3.83108,29.055661 10.53566,25.870521 5.86457,-2.78972 2.1232,-27.008349 -6.54012,-27.321492 z M 141.86848,103.8171 c -24.68915,-0.42285 -57.256007,12.10755 -62.812577,37.27669 -6.01235,27.23086 24.764217,65.0224 56.875087,65.0224 15.79657,0 34.0216,-14.44091 37.43303,-32.7232 2.60309,-13.94057 -30.65749,-8.3512 -29.46434,0.87086 1.43383,11.05714 -7.99966,16.52411 -17.2544,9.39726 -29.459437,-22.69143 48.77714,-34.02229 43.616,-65.02229 -1.60617,-9.65029 -13.57909,-14.56777 -28.3928,-14.82149 z"/>
</svg>
